assets/img/partners.svg

<svg width="120" height="120" viewBox="0 0 120 120" fill="none" xmlns="http://www.w3.org/2000/svg">
<circle cx="60" cy="60" r="60" fill="#F3F3F3"/>
<path d="M82.9317 67.6963H81.9335C82.7482 66.6343 83.2341 65.3074 83.2341 63.8687V62.123C83.2341 58.6482 80.4071 55.8213 76.9325 55.8213C73.4579 55.8213 70.6309 58.6483 70.6309 62.123V63.8687C70.6309 65.3075 71.1166 66.6343 71.9315 67.6963H70.9332C70.5802 67.6963 70.2329 67.7215 69.8917 67.7656L64.3206 62.1944C63.2738 61.1477 61.9751 60.5036 60.6178 60.2593C60.6183 60.2447 60.6201 60.2303 60.6201 60.2156V57.9578L63.5698 55.0081C63.8516 55.0252 64.218 55.0399 64.6488 55.0399C66.9466 55.0399 71.0625 54.6239 73.7856 51.951C77.4443 48.3604 76.9565 42.1041 76.8562 41.1365C76.8391 40.8444 76.719 40.557 76.4957 40.3338C76.2758 40.1138 75.9934 39.994 75.7054 39.9746C75.149 39.9261 68.8224 39.4693 65.086 43.1344C61.8838 46.277 61.7633 51.3915 61.8374 53.2416L60.6199 54.459V45.6395C62.0153 44.4039 65.8481 40.5837 65.8921 35.8693C65.9422 30.5333 60.9674 26.2812 60.186 25.6465C59.9673 25.4516 59.6788 25.3333 59.3629 25.3333C59.0513 25.3333 58.7668 25.4485 58.5493 25.6387C58.1023 26.0143 53.1066 30.3343 53.054 35.784C53.0096 40.5256 56.7573 44.3903 58.146 45.6552V54.4904L56.6357 52.9802C56.7076 51.1537 56.5824 46.1531 53.4464 43.0753C49.8084 39.5067 43.6809 39.9188 43.0457 39.9724C42.7647 39.9875 42.4878 40.098 42.267 40.3045C42.0287 40.5274 41.8981 40.823 41.8779 41.1256C41.7827 42.0327 41.2854 48.2072 44.8912 51.7459C47.5648 54.37 51.6038 54.7782 53.8577 54.7782C54.2741 54.7782 54.6293 54.7642 54.9041 54.7477L58.1458 57.9895V60.216C58.1458 60.229 58.1474 60.2414 58.1478 60.2543C56.7793 60.4943 55.4687 61.1399 54.4138 62.1948L48.8428 67.7659C48.5015 67.7219 48.1544 67.6967 47.8013 67.6967H46.803C47.6177 66.6347 48.1036 65.3078 48.1036 63.869V62.1234C48.1036 58.6486 45.2766 55.8217 41.802 55.8217C38.3274 55.8217 35.5004 58.6487 35.5004 62.1234V63.869C35.5004 65.3079 35.9862 66.6347 36.801 67.6967H35.8025C31.3348 67.6967 27.7002 71.3313 27.7002 75.7989V87.4296C27.7002 88.1127 28.2541 88.6666 28.9372 88.6666H54.6666C55.3496 88.6666 55.9035 88.1127 55.9035 87.4296V75.7989C55.9035 72.667 54.1162 69.9465 51.509 68.5985L56.1632 63.9443C57.9299 62.1777 60.8045 62.1778 62.5709 63.9443L67.2251 68.5985C64.618 69.9461 62.8307 72.6666 62.8307 75.7986V87.4292C62.8307 88.1123 63.3846 88.6662 64.0677 88.6662H89.797C90.4801 88.6662 91.034 88.1123 91.034 87.4292V75.7986C91.034 71.3308 87.3994 67.6963 82.9317 67.6963ZM66.8185 44.9002C69.0394 42.7217 72.6683 42.4148 74.4528 42.4069C74.4947 44.237 74.2806 47.9986 72.0524 50.1853C70.4145 51.7928 67.9735 52.3381 66.0773 52.5004L68.2039 50.3737C68.687 49.8907 68.687 49.1074 68.2039 48.6243C67.7207 48.1413 66.9377 48.1413 66.4544 48.6243L64.3945 50.6842C64.6037 48.8286 65.2052 46.4833 66.8185 44.9002ZM46.6241 49.9799C44.4587 47.8549 44.2421 44.203 44.2808 42.406C46.0282 42.4158 49.5521 42.7207 51.7135 44.8408C53.2668 46.3652 53.8592 48.6145 54.0711 50.4154L52.5478 48.8922C52.0647 48.4093 51.2817 48.4093 50.7984 48.8922C50.3153 49.3752 50.3153 50.1585 50.7984 50.6417L52.397 52.2404C50.5565 52.0773 48.2124 51.5387 46.6241 49.9799ZM37.9743 63.8685V62.1229C37.9743 60.0122 39.6913 58.2952 41.8019 58.2952C43.9124 58.2952 45.6295 60.0124 45.6295 62.1229V63.8685C45.6295 65.9792 43.9124 67.6962 41.8019 67.6962C39.6913 67.6962 37.9743 65.9792 37.9743 63.8685ZM53.4296 75.7986V86.1922H49.966V76.8564C49.966 76.1734 49.4121 75.6194 48.729 75.6194C48.0459 75.6194 47.492 76.1734 47.492 76.8564V86.1922H36.1117V76.8564C36.1117 76.1734 35.5578 75.6194 34.8747 75.6194C34.1917 75.6194 33.6377 76.1734 33.6377 76.8564V86.1922H30.1742V75.7986C30.1742 72.6951 32.699 70.1703 35.8025 70.1703H47.8013C50.9047 70.1703 53.4296 72.6951 53.4296 75.7986ZM55.5279 35.8073C55.5597 32.5009 58.0756 29.5522 59.3839 28.2408C60.7627 29.5501 63.4492 32.5302 63.418 35.8459C63.395 38.3112 61.929 40.5725 60.6198 42.1045V37.9497C60.6198 37.2666 60.0659 36.7127 59.3828 36.7127C58.6998 36.7127 58.1458 37.2666 58.1458 37.9497V42.062C56.8886 40.523 55.5047 38.2668 55.5279 35.8073ZM73.1047 63.8685V62.1229C73.1047 60.0122 74.8218 58.2952 76.9324 58.2952C79.0429 58.2952 80.76 60.0124 80.76 62.1229V63.8685C80.76 65.9792 79.0429 67.6962 76.9324 67.6962C74.8218 67.6962 73.1047 65.9792 73.1047 63.8685ZM88.56 86.1922H85.0965V81.6154C85.0965 80.9323 84.5426 80.3784 83.8595 80.3784C83.1764 80.3784 82.6225 80.9323 82.6225 81.6154V86.1922H71.2422V76.8564C71.2422 76.1734 70.6883 75.6194 70.0052 75.6194C69.3222 75.6194 68.7682 76.1734 68.7682 76.8564V86.1922H65.3047V75.7986C65.3047 72.6951 67.8295 70.1703 70.933 70.1703H82.9317C86.0352 70.1703 88.56 72.6951 88.56 75.7986V86.1922Z" fill="#6ADF91"/>
<path d="M83.8591 75.6195C83.5337 75.6195 83.2146 75.7517 82.9845 75.9819C82.7544 76.2119 82.6221 76.531 82.6221 76.8565C82.6221 77.1818 82.7543 77.501 82.9845 77.7309C83.2146 77.961 83.5337 78.0935 83.8591 78.0935C84.1844 78.0935 84.5035 77.9611 84.7335 77.7309C84.9636 77.501 85.096 77.1818 85.096 76.8565C85.096 76.531 84.9637 76.2119 84.7335 75.9819C84.5035 75.7519 84.1844 75.6195 83.8591 75.6195Z" fill="#6ADF91"/>
<path d="M44.8926 51.7462H44.8916V51.7452L44.8926 51.7462Z" fill="black"/>
<path d="M36.737 31.5704C37.4201 31.5704 37.974 31.0165 37.974 30.3334V28.7958C37.974 28.1128 37.4201 27.5588 36.737 27.5588C36.0539 27.5588 35.5 28.1128 35.5 28.7958V30.3334C35.5 31.0165 36.0538 31.5704 36.737 31.5704Z" fill="#4BB1E9"/>
<path d="M36.737 38.9392C37.4201 38.9392 37.974 38.3852 37.974 37.7022V36.1646C37.974 35.4815 37.4201 34.9276 36.737 34.9276C36.0539 34.9276 35.5 35.4815 35.5 36.1646V37.7022C35.5 38.3854 36.0538 38.9392 36.737 38.9392Z" fill="#4BB1E9"/>
<path d="M39.653 34.4859H41.1907C41.8738 34.4859 42.4277 33.932 42.4277 33.249C42.4277 32.5659 41.8738 32.012 41.1907 32.012H39.653C38.9699 32.012 38.416 32.5659 38.416 33.249C38.416 33.932 38.9699 34.4859 39.653 34.4859Z" fill="#4BB1E9"/>
<path d="M32.2839 34.4859H33.8214C34.5045 34.4859 35.0584 33.932 35.0584 33.249C35.0584 32.5659 34.5045 32.012 33.8214 32.012H32.2839C31.6008 32.012 31.0469 32.5659 31.0469 33.249C31.0469 33.932 31.6007 34.4859 32.2839 34.4859Z" fill="#4BB1E9"/>
<path d="M85.3434 47.1226C86.0265 47.1226 86.5804 46.5687 86.5804 45.8856V44.3481C86.5804 43.665 86.0265 43.1111 85.3434 43.1111C84.6604 43.1111 84.1064 43.665 84.1064 44.3481V45.8856C84.1064 46.5688 84.6604 47.1226 85.3434 47.1226Z" fill="#4BB1E9"/>
<path d="M85.3434 54.4915C86.0265 54.4915 86.5804 53.9376 86.5804 53.2545V51.7168C86.5804 51.0338 86.0265 50.4799 85.3434 50.4799C84.6604 50.4799 84.1064 51.0338 84.1064 51.7168V53.2545C84.1064 53.9376 84.6604 54.4915 85.3434 54.4915Z" fill="#4BB1E9"/>
<path d="M88.2595 50.0383H89.797C90.4801 50.0383 91.034 49.4844 91.034 48.8013C91.034 48.1183 90.4801 47.5643 89.797 47.5643H88.2595C87.5764 47.5643 87.0225 48.1183 87.0225 48.8013C87.0225 49.4844 87.5764 50.0383 88.2595 50.0383Z" fill="#4BB1E9"/>
<path d="M80.8903 50.0383H82.4279C83.1109 50.0383 83.6649 49.4844 83.6649 48.8013C83.6649 48.1183 83.1109 47.5643 82.4279 47.5643H80.8903C80.2072 47.5643 79.6533 48.1183 79.6533 48.8013C79.6533 49.4844 80.2072 50.0383 80.8903 50.0383Z" fill="#4BB1E9"/>
</svg>

<svg width="120" height="120" fill="none" xmlns="http://www.w3.org/2000/svg"><circle cx="60" cy="60" r="60" fill="#F3F3F3"/><path d="M82.932 67.696h-.999a6.269 6.269 0 001.301-3.827v-1.746a6.309 6.309 0 00-6.301-6.302 6.309 6.309 0 00-6.302 6.302v1.746a6.27 6.27 0 001.3 3.827h-.998c-.353 0-.7.026-1.041.07l-5.571-5.572a6.964 6.964 0 00-3.703-1.935l.002-.043v-2.258l2.95-2.95c.282.017.648.032 1.079.032 2.298 0 6.413-.416 9.137-3.089 3.658-3.59 3.17-9.847 3.07-10.815a1.233 1.233 0 00-1.15-1.161c-.557-.049-6.884-.506-10.62 3.16-3.202 3.142-3.323 8.257-3.249 10.107l-1.217 1.217v-8.82c1.395-1.235 5.228-5.055 5.272-9.77.05-5.336-4.925-9.588-5.706-10.223a1.233 1.233 0 00-1.637-.007c-.447.375-5.442 4.695-5.495 10.145-.044 4.742 3.703 8.606 5.092 9.871v8.835l-1.51-1.51c.072-1.826-.054-6.827-3.19-9.905-3.638-3.568-9.765-3.156-10.4-3.103a1.233 1.233 0 00-1.168 1.154c-.095.907-.593 7.081 3.013 10.62 2.674 2.624 6.713 3.032 8.967 3.032.416 0 .771-.014 1.046-.03l3.242 3.242v2.226l.002.038a6.964 6.964 0 00-3.734 1.94l-5.571 5.572a8.135 8.135 0 00-1.042-.07h-.998a6.269 6.269 0 001.3-3.827v-1.746a6.309 6.309 0 00-6.301-6.301 6.309 6.309 0 00-6.302 6.301v1.746c0 1.439.486 2.766 1.301 3.828h-.998c-4.468 0-8.103 3.634-8.103 8.102v11.63c0 .684.554 1.238 1.237 1.238h25.73c.683 0 1.236-.554 1.236-1.237V75.799a8.109 8.109 0 00-4.394-7.2l4.654-4.655a4.536 4.536 0 016.408 0l4.654 4.654a8.108 8.108 0 00-4.394 7.2V87.43c0 .683.554 1.237 1.237 1.237h25.729c.683 0 1.237-.554 1.237-1.237V75.8c0-4.468-3.635-8.103-8.102-8.103zM66.818 44.9c2.221-2.178 5.85-2.485 7.635-2.493.042 1.83-.172 5.592-2.4 7.778-1.638 1.608-4.08 2.153-5.976 2.315l2.127-2.126a1.237 1.237 0 10-1.75-1.75l-2.06 2.06c.21-1.855.811-4.2 2.424-5.784zm-20.194 5.08c-2.165-2.125-2.382-5.777-2.343-7.574 1.747.01 5.271.315 7.433 2.435 1.553 1.524 2.145 3.773 2.357 5.574l-1.523-1.523a1.237 1.237 0 00-1.75 1.75l1.599 1.598c-1.84-.163-4.185-.701-5.773-2.26zm-8.65 13.889v-1.746a3.832 3.832 0 013.828-3.828 3.832 3.832 0 013.828 3.828v1.745a3.832 3.832 0 01-3.828 3.828 3.832 3.832 0 01-3.828-3.828zm15.456 11.93v10.393h-3.464v-9.336a1.237 1.237 0 00-2.474 0v9.336h-11.38v-9.336a1.237 1.237 0 00-2.474 0v9.336h-3.464V75.8a5.635 5.635 0 015.629-5.629H47.8a5.635 5.635 0 015.63 5.629zm2.098-39.992c.032-3.306 2.548-6.255 3.856-7.566 1.379 1.31 4.065 4.29 4.034 7.605-.023 2.465-1.489 4.727-2.798 6.259V37.95a1.237 1.237 0 00-2.474 0v4.112c-1.257-1.539-2.641-3.795-2.618-6.255zm17.577 28.061v-1.745a3.832 3.832 0 013.827-3.828 3.832 3.832 0 013.828 3.828v1.745a3.832 3.832 0 01-3.828 3.828 3.832 3.832 0 01-3.827-3.828zM88.56 86.192h-3.463v-4.577a1.237 1.237 0 00-2.474 0v4.577h-11.38v-9.336a1.237 1.237 0 00-2.475 0v9.336h-3.463V75.8a5.635 5.635 0 015.628-5.629h11.999A5.635 5.635 0 0188.56 75.8v10.393z" fill="#6ADF91"/><path d="M83.86 75.62a1.25 1.25 0 00-.876.362c-.23.23-.362.549-.362.874 0 .326.132.645.362.875.23.23.55.363.875.363.325 0 .645-.133.875-.363.23-.23.362-.55.362-.874 0-.326-.132-.645-.362-.875-.23-.23-.55-.362-.875-.362z" fill="#6ADF91"/><path d="M44.893 51.746h-.001z" fill="#000"/><path d="M36.737 31.57c.683 0 1.237-.553 1.237-1.237v-1.537a1.237 1.237 0 00-2.474 0v1.537c0 .684.554 1.237 1.237 1.237zm0 7.37c.683 0 1.237-.555 1.237-1.238v-1.537a1.237 1.237 0 00-2.474 0v1.537c0 .683.554 1.237 1.237 1.237zm2.916-4.454h1.538a1.237 1.237 0 000-2.474h-1.538a1.237 1.237 0 000 2.474zm-7.369 0h1.537a1.237 1.237 0 000-2.474h-1.537a1.237 1.237 0 000 2.474zm53.059 12.637c.683 0 1.237-.554 1.237-1.237v-1.538a1.237 1.237 0 00-2.474 0v1.538c0 .683.554 1.237 1.237 1.237zm0 7.369c.683 0 1.237-.554 1.237-1.237v-1.538a1.237 1.237 0 00-2.474 0v1.538c0 .683.554 1.236 1.237 1.236zm2.917-4.454h1.537a1.237 1.237 0 000-2.474H88.26a1.237 1.237 0 000 2.474zm-7.37 0h1.538a1.237 1.237 0 000-2.474H80.89a1.237 1.237 0 000 2.474z" fill="#4BB1E9"/></svg>
